svgs/solid/paintbrush-fine.svg

<svg xmlns="http://www.w3.org/2000/svg" viewBox="0 0 576 512"><!--! Font Awesome Pro 6.1.2 by @fontawesome - https://fontawesome.com License - https://fontawesome.com/license (Commercial License) Copyright 2022 Fonticons, Inc. --><path d="M559.6 16.4C581.5 38.27 581.5 73.73 559.6 95.6L306.9 348.3L227.7 269.1L480.4 16.4C502.3-5.467 537.7-5.467 559.6 16.4H559.6zM284.3 370.9L284.2 370.1C286.7 380.2 288 389.1 288 400C288 461.9 237.9 512 176 512H32C14.33 512 0 497.7 0 480C0 462.3 14.33 448 32 448H36.81C54.44 448 66.4 429.1 64.59 411.6C64.2 407.8 64 403.9 64 400C64 338.1 114.1 288 176 288C186 288 195.8 289.3 205 291.8L205.1 291.7L284.3 370.9z"/></svg>

<svg xmlns="http://www.w3.org/2000/svg" viewBox="0 0 576 512"><!--! Font Awesome Pro 6.2.0 by @fontawesome - https://fontawesome.com License - https://fontawesome.com/license (Commercial License) Copyright 2022 Fonticons, Inc. --><path d="M559.6 16.4c21.9 21.9 21.9 57.3 0 79.2L306.9 348.3l-79.2-79.2L480.4 16.4c21.9-21.9 57.3-21.9 79.2 0zM205.1 291.7l79.2 79.2-.1 .1c2.5 9.3 3.8 19 3.8 29c0 61.9-50.1 112-112 112H32c-17.7 0-32-14.3-32-32s14.3-32 32-32h4.8c17.6 0 29.6-18.9 27.8-36.4c-.4-3.8-.6-7.7-.6-11.6c0-61.9 50.1-112 112-112c10 0 19.8 1.3 29 3.8l.1-.1z"/></svg>
